assets/images/event.svg

<?xml version="1.0" encoding="UTF-8"?>
<!DOCTYPE svg PUBLIC "-//W3C//DTD SVG 1.1//EN" "http://www.w3.org/Graphics/SVG/1.1/DTD/svg11.dtd">
<svg xmlns="http://www.w3.org/2000/svg" version="1.1" width="110px" height="112px" style="shape-rendering:geometricPrecision; text-rendering:geometricPrecision; image-rendering:optimizeQuality; fill-rule:evenodd; clip-rule:evenodd" xmlns:xlink="http://www.w3.org/1999/xlink">
<g><path style="opacity:0.839" fill="#fefffe" d="M 26.5,4.5 C 30.314,4.6509 31.9807,6.6509 31.5,10.5C 46.8333,10.5 62.1667,10.5 77.5,10.5C 77.2008,5.78625 79.2008,4.11959 83.5,5.5C 84.4519,7.04533 84.7852,8.71199 84.5,10.5C 94.9969,9.82995 101.83,14.4966 105,24.5C 105.667,47.1667 105.667,69.8333 105,92.5C 103.167,99.6667 98.6667,104.167 91.5,106C 66.8333,106.667 42.1667,106.667 17.5,106C 10.3333,104.167 5.83333,99.6667 4,92.5C 3.33333,69.8333 3.33333,47.1667 4,24.5C 7.14476,14.5061 13.9781,9.83944 24.5,10.5C 24.2525,8.14166 24.9192,6.14166 26.5,4.5 Z M 18.5,17.5 C 20.5,17.5 22.5,17.5 24.5,17.5C 24.3359,20.1873 24.5026,22.854 25,25.5C 27.2672,26.9348 29.2672,26.6015 31,24.5C 31.4966,22.1902 31.6633,19.8568 31.5,17.5C 46.8333,17.5 62.1667,17.5 77.5,17.5C 77.3367,19.8568 77.5034,22.1902 78,24.5C 79.7328,26.6015 81.7328,26.9348 84,25.5C 84.4974,22.854 84.6641,20.1873 84.5,17.5C 95.4763,17.7281 100.143,23.3947 98.5,34.5C 69.1667,34.5 39.8333,34.5 10.5,34.5C 9.19808,26.7766 11.8647,21.1099 18.5,17.5 Z M 10.5,41.5 C 39.8333,41.5 69.1667,41.5 98.5,41.5C 98.6666,57.8367 98.4999,74.1701 98,90.5C 97.1667,95.3333 94.3333,98.1667 89.5,99C 66.1667,99.6667 42.8333,99.6667 19.5,99C 14.6667,98.1667 11.8333,95.3333 11,90.5C 10.5001,74.1701 10.3334,57.8367 10.5,41.5 Z"/></g>
<g><path style="opacity:0.914" fill="#fefffe" d="M 52.5,49.5 C 54.7224,49.178 56.5557,49.8446 58,51.5C 59.1406,58.9731 63.474,62.3065 71,61.5C 73.8015,62.1046 74.8015,63.7713 74,66.5C 71.1149,69.0482 68.6149,71.8815 66.5,75C 67.1211,78.1855 67.7878,81.3522 68.5,84.5C 67.259,87.144 65.259,87.9774 62.5,87C 59.9454,85.5555 57.2787,84.3888 54.5,83.5C 51.1667,84.8333 47.8333,86.1667 44.5,87.5C 42.9707,87.4712 41.804,86.8045 41,85.5C 41.0012,81.9851 41.5012,78.4851 42.5,75C 39.8333,71.6667 37.1667,68.3333 34.5,65C 34.7591,63.7387 35.4258,62.7387 36.5,62C 39.7895,61.1184 43.1228,60.4517 46.5,60C 48.3715,56.4233 50.3715,52.9233 52.5,49.5 Z"/></g>
</svg>

<svg xmlns="http://www.w3.org/2000/svg" width="110" height="112" style="shape-rendering:geometricPrecision;text-rendering:geometricPrecision;image-rendering:optimizeQuality;fill-rule:evenodd;clip-rule:evenodd"><path fill="#fefffe" d="M26.5 4.5q5.72.225 5 6h46q-.45-7.07 6-5 1.428 2.318 1 5 15.745-1.005 20.5 14 1 34 0 68-2.75 10.75-13.5 13.5-37 1-74 0Q6.75 103.25 4 92.5a1156 1156 0 0 1 0-68q4.717-14.99 20.5-14-.37-3.537 2-6m-8 13h6a32.4 32.4 0 0 0 .5 8q3.4 2.153 6-1 .745-3.465.5-7h46q-.245 3.535.5 7 2.6 3.153 6 1 .746-3.97.5-8 16.464.342 14 17h-88q-1.953-11.585 8-17m-8 24h88q.25 24.505-.5 49-1.25 7.25-8.5 8.5-35 1-70 0-7.25-1.25-8.5-8.5-.75-24.495-.5-49" style="opacity:.839"/><path fill="#fefffe" d="M52.5 49.5q3.334-.483 5.5 2 1.71 11.21 13 10 4.203.907 3 5a45 45 0 0 0-7.5 8.5 324 324 0 0 0 2 9.5q-1.862 3.966-6 2.5a42.6 42.6 0 0 0-8-3.5l-10 4q-2.294-.043-3.5-2 .001-5.273 1.5-10.5l-8-10q.39-1.892 2-3a79 79 0 0 1 10-2 163 163 0 0 1 6-10.5" style="opacity:.914"/></svg>
